X: 3561
T: Big Reel Of Ballynacally, The
R: reel
M: 4/4
K: Gmajor
g2gf g2gf|gbag fdd2|g2fg abag|fdcA BGG2|
g2fg a=ff2|=fgfd e3^c|d2de fddc|AGFG AGFE|
DGFG A2dc|AGFG AGFE|DGFG A2dc|AGFG A3F|
DGFG A2dc|AGFG ABcA|d2de fdd^c|dedc AGGf|

